assets/icons/qvision/font_download.svg

<svg xmlns="http://www.w3.org/2000/svg" baseProfile="tiny" height="24" viewBox="0 0 24 24" width="24"><path d="M0 0h24v24H0V0z" fill="none"/><path d="M9.93 13.5h4.14L12 7.98zM20 2H4c-1.1 0-2 .9-2 2v16c0 1.1.9 2 2 2h16c1.1 0 2-.9 2-2V4c0-1.1-.9-2-2-2zm-4.05 16.5l-1.14-3H9.17l-1.12 3H5.96l5.11-13h1.86l5.11 13h-2.09z"/></svg>

<svg width="24" height="24" viewBox="0 0 24 24" fill="none" xmlns="http://www.w3.org/2000/svg">
<g clip-path="url(#clip0_147_2153)">
<path d="M9.93 13.5H14.07L12 7.98L9.93 13.5ZM20 2H4C2.9 2 2 2.9 2 4V20C2 21.1 2.9 22 4 22H20C21.1 22 22 21.1 22 20V4C22 2.9 21.1 2 20 2ZM15.95 18.5L14.81 15.5H9.17L8.05 18.5H5.96L11.07 5.5H12.93L18.04 18.5H15.95Z" fill="#323232"/>
</g>
<defs>
<clipPath id="clip0_147_2153">
<rect width="24" height="24" fill="white"/>
</clipPath>
</defs>
</svg>
